public/images/twitter.svg

<svg width="34" height="35" viewBox="0 0 34 35" fill="none" xmlns="http://www.w3.org/2000/svg">
<circle cx="17" cy="17.5" r="17" fill="white"/>
<path d="M26.0096 13.1658C25.4146 13.4208 24.7346 13.5908 24.0546 13.6758C24.7346 13.2508 25.3296 12.5708 25.5846 11.8058C24.9046 12.2308 24.2246 12.4858 23.3746 12.6558C22.7796 11.9758 21.8446 11.5508 20.9096 11.5508C19.0396 11.5508 17.5096 13.0808 17.5096 14.9508C17.5096 15.2058 17.5096 15.4608 17.5946 15.7158C14.7896 15.5458 12.2396 14.1858 10.5396 12.1458C10.2846 12.6558 10.1146 13.2508 10.1146 13.8458C10.1146 15.0358 10.7096 16.0558 11.6446 16.6508C11.0496 16.6508 10.5396 16.4808 10.1146 16.2258C10.1146 17.8408 11.3046 19.2858 12.8346 19.5408C12.5796 19.6258 12.2396 19.6258 11.8996 19.6258C11.6446 19.6258 11.4746 19.6258 11.2196 19.5408C11.6446 20.9008 12.9196 21.9208 14.4496 21.9208C13.2596 22.8558 11.8146 23.3658 10.1996 23.3658C9.94461 23.3658 9.68961 23.3658 9.34961 23.2808C10.8796 24.2158 12.6646 24.8108 14.6196 24.8108C20.9096 24.8108 24.3096 19.6258 24.3096 15.1208V14.6958C24.9896 14.4408 25.5846 13.8458 26.0096 13.1658Z" fill="black"/>
</svg>

<svg width="34" height="35" fill="none" xmlns="http://www.w3.org/2000/svg"><circle cx="17" cy="17.5" r="17" fill="#fff"/><path d="M26.01 13.166a7.35 7.35 0 01-1.955.51c.68-.425 1.275-1.105 1.53-1.87-.68.425-1.36.68-2.21.85a3.344 3.344 0 00-2.465-1.105 3.41 3.41 0 00-3.4 3.4c0 .255 0 .51.085.765a10.02 10.02 0 01-7.055-3.57c-.255.51-.425 1.105-.425 1.7 0 1.19.595 2.21 1.53 2.805-.595 0-1.105-.17-1.53-.425 0 1.615 1.19 3.06 2.72 3.315-.255.085-.595.085-.935.085-.255 0-.425 0-.68-.085a3.393 3.393 0 003.23 2.38c-1.19.935-2.635 1.445-4.25 1.445-.255 0-.51 0-.85-.085 1.53.935 3.315 1.53 5.27 1.53 6.29 0 9.69-5.185 9.69-9.69v-.425c.68-.255 1.275-.85 1.7-1.53z" fill="#000"/></svg>
